assets/images/twitter.svg

<?xml version="1.0" encoding="iso-8859-1"?>
<!-- Generator: Adobe Illustrator 19.0.0, SVG Export Plug-In . SVG Version: 6.00 Build 0)  -->
<svg version="1.1" id="Capa_1" xmlns="http://www.w3.org/2000/svg" xmlns:xlink="http://www.w3.org/1999/xlink" x="0px" y="0px"
	 viewBox="0 0 512 512" style="enable-background:new 0 0 512 512;" xml:space="preserve">
<g>
	<g>
		<path d="M512,97.248c-19.04,8.352-39.328,13.888-60.48,16.576c21.76-12.992,38.368-33.408,46.176-58.016
			c-20.288,12.096-42.688,20.64-66.56,25.408C411.872,60.704,384.416,48,354.464,48c-58.112,0-104.896,47.168-104.896,104.992
			c0,8.32,0.704,16.32,2.432,23.936c-87.264-4.256-164.48-46.08-216.352-109.792c-9.056,15.712-14.368,33.696-14.368,53.056
			c0,36.352,18.72,68.576,46.624,87.232c-16.864-0.32-33.408-5.216-47.424-12.928c0,0.32,0,0.736,0,1.152
			c0,51.008,36.384,93.376,84.096,103.136c-8.544,2.336-17.856,3.456-27.52,3.456c-6.72,0-13.504-0.384-19.872-1.792
			c13.6,41.568,52.192,72.128,98.08,73.12c-35.712,27.936-81.056,44.768-130.144,44.768c-8.608,0-16.864-0.384-25.12-1.44
			C46.496,446.88,101.6,464,161.024,464c193.152,0,298.752-160,298.752-298.688c0-4.64-0.16-9.12-0.384-13.568
			C480.224,136.96,497.728,118.496,512,97.248z" fill="#606060"/>
	</g>
</g>
<g>
</g>
<g>
</g>
<g>
</g>
<g>
</g>
<g>
</g>
<g>
</g>
<g>
</g>
<g>
</g>
<g>
</g>
<g>
</g>
<g>
</g>
<g>
</g>
<g>
</g>
<g>
</g>
<g>
</g>
</svg>

<svg width="512" height="512" viewBox="0 0 512 512" fill="none" xmlns="http://www.w3.org/2000/svg">
<g clip-path="url(#clip0_1102_222)">
<path d="M512 97.248C492.96 105.6 472.672 111.136 451.52 113.824C473.28 100.832 489.888 80.416 497.696 55.808C477.408 67.904 455.008 76.448 431.136 81.216C411.872 60.704 384.416 48 354.464 48C296.352 48 249.568 95.168 249.568 152.992C249.568 161.312 250.272 169.312 252 176.928C164.736 172.672 87.52 130.848 35.648 67.136C26.592 82.848 21.28 100.832 21.28 120.192C21.28 156.544 40 188.768 67.904 207.424C51.04 207.104 34.496 202.208 20.48 194.496C20.48 194.816 20.48 195.232 20.48 195.648C20.48 246.656 56.864 289.024 104.576 298.784C96.032 301.12 86.72 302.24 77.056 302.24C70.336 302.24 63.552 301.856 57.184 300.448C70.784 342.016 109.376 372.576 155.264 373.568C119.552 401.504 74.208 418.336 25.12 418.336C16.512 418.336 8.256 417.952 0 416.896C46.496 446.88 101.6 464 161.024 464C354.176 464 459.776 304 459.776 165.312C459.776 160.672 459.616 156.192 459.392 151.744C480.224 136.96 497.728 118.496 512 97.248Z" fill="#1C2891"/>
</g>
<defs>
<clipPath id="clip0_1102_222">
<rect width="512" height="512" fill="white"/>
</clipPath>
</defs>
</svg>
